X:12337
T:Old Joe's
M:6/8
L:1/8
K:D Major
e|fAA AFA|BAF A3|BdB AFA|Bcd efg|!
fAA AFA|BAF A3|BdB AFA|Bdd d2:|!
e|f3 e3|dBA d2e|faa afd|faa b2a|!
f3 e3|dBA d2e|fAA AFA|Bdd d2:|!
